X:1
T:May, Lovely May
T:May, Lovely May
T:Album for the Young
T:Schumann - Op. 68, No. 13
C:Schumann - Op. 68, No. 13
%%score { ( 1 4 ) | ( 2 3 ) }
L:1/8
Q:1/4=71
M:2/4
K:E
V:1 treble nm="Piano" snm="Pno."
V:4 treble 
V:2 bass 
V:3 bass 
V:1
!p!"^Nicht schnell" (.!1!B/.!2!c/) | (!1!B/!5!g/)(.!4!f/.d/) (!5!e/!1!B/!4!c/!2!G/) | %2
({CF} B2 A) (.!1!c/.=d/) | (c/a/)(.!4!g/.^e/) (f/c/!5!g/f/) |({AB} !5!e2 d) (!1!!4![Fc]/!3!B/) | %5
 (!2!B/e/)(.!1!!4![Ad]/.c/) B{/!5!d} (!1!!4![Fc]/!3!B/) | (B/e/)(.[Ad]/.c/) B (!1!!4![Fc]/!3!B/) | %7
!<(! (!1!B/b/^a/g/!<)!!>(! (!1!!2![cf]/!1!^^c/)!2!d/B/)!>)! | %8
 (.!5![FBd].!4![E^Ac]) !3![DB]!f!({!2!B!4!d} !3![Gc]/B/) | (!1!B/b/^a/!3!g/ !5!f/!3!d/B/e/) | %10
 (.!5![E^Ad].!4![FAc]) [FB]!p! (.B/.c/) | (B/g/)(.f/.d/) (e/B/c/G/) |({CF} B2 A) (.c/.=d/) | %13
 (c/a/)(.g/.^e/) (f/c/!5!g/f/) |({AB} e2 d) ([Fc]/B/) | (B/e/)(.[Ad]/.c/) B{/d} ([Fc]/B/) | %16
 (B/e/)(.[Ad]/.c/) B ([Fc]/B/) |!<(! (B/b/^a/g/!<)!!>(! ([cf]/^^c/)d/B/)!>)! | %18
 (.[FBd].[E^Ac]) [DB]!f!({Bd} [Gc]/B/) | (B/b/^a/g/ f/d/B/e/) | (.[E^Ad].[FAc]) [FB] || %21
!>(!{/!5!=d} (!4![Fc]/!3!B/) | (!3!B/=d/!4![^Ec]/!2!G/!>)! !3!B/A/)!>(! !4!=e/!3!d/ | %23
 (!2![A=d]/!4!f/e/B/!>)! !3!d/c/) (.!2![ce]/.!3![cf]/) | (!2![ce]/c'/!4!b/g/ !3!a/!1!c/!4!g/f/) | %25
 (!5!e/d/)(.c/.B/) B (.!3!B/.!4!c/) |!p! (!2![GB]/g/)(.f/.d/) (e/B/c/G/) |({CF} B2 A) (.c/.=d/) | %28
 (c/a/)(.g/.^e/) (f/c/g/f/) |({AB} e2 d) ([Fc]/B/) | (B/e/)(.[Ad]/.c/) B{/d} ([Fc]/B/) | %31
 (B/e/)(.[Ad]/.c/) B{/d} ([Fc]/B/) | (!1!B/!5!g/f/d/) (!1!G/!5!e/d/^B/) | %33
 (!1!E/!5!c/=B/G/) !1!A (.!3!F/.!1!=E/) | %34
 (!>!!2!D/!3!F/)(.!1!A/.!3!c/) (!2!c/!1!B/) (.!2!c/.!5!f/) | %35
 (!5!f/!1!B/) !2!c/!3!d/ !4!!2!e !5!b- | (b!5!a/!4!g/) !5!f/!2!c/(^d/e/) | %37
 (!5!ed !5!e)!>(!{/!5!=d} ([Fc]/B/) | (B/=d/[^Ec]/G/!>)! B/A/)!>(! =e/d/ | %39
 ([A=d]/f/e/B/!>)! d/c/) (.[ce]/.[cf]/) | ([ce]/c'/b/g/ a/c/g/f/) | (e/d/)(.c/.B/) B (.B/.c/) | %42
!p! ([GB]/g/)(.f/.d/) (e/B/c/G/) |({CF} B2 A) (.c/.=d/) | (c/a/)(.g/.^e/) (f/c/g/f/) | %45
({AB} e2 d) ([Fc]/B/) | (B/e/)(.[Ad]/.c/) B{/d} ([Fc]/B/) | (B/e/)(.[Ad]/.c/) B{/d} ([Fc]/B/) | %48
 (B/g/f/d/) (G/e/d/^B/) | (E/c/=B/G/) A (.F/.=E/) | (!>!D/F/)(.A/.c/) (c/B/) (.c/.f/) | %51
 f/B/ c/d/ e b- | (ba/g/) f/c/(^d/e/) | (ed e) |] %54
V:2
 z |[K:treble]!p! (!2!GAG!3!^E) |[K:bass] z (.!4!F,/.G,/) (F,/C/) z |[K:treble] (!2!ABA!1!A) | %4
 z (.!4!B,/.C/) (B,/!1!F/) !5!!2![A,D] | [G,E] (.!5!A,/.!3!C/) (!2!D/!1!F/)(.[A,E]/.D/) | %6
 [G,E] (.A,/.C/) (D/F/)(.[A,E]/.D/) | (!1!E!2!^E !1!F2) |[K:bass] (.!5!F,.^^F,) G, !5!!2![^E,C]- | %9
 (C!1!^^C) !4!!1![F,D](!2!G,/^C,/) | (.!3!F,.!5![F,E]) [B,D] z |[K:treble]!p! (GAG^E) | %12
[K:bass] z (.F,/.G,/) (F,/C/) z |[K:treble] (ABAA) | z (.B,/.C/) (B,/F/) [A,D] | %15
 [G,E] (.!5!A,/.!3!C/) (!2!D/!1!F/)(.[A,E]/.D/) | [G,E] (.A,/.C/) (D/F/)(.[A,E]/.D/) | (E^E F2) | %18
[K:bass] (.F,.^^F,) G, [^E,C]- | (C^^C) [F,D](G,/^C,/) | (.F,.[F,E]) [B,D] || !4!!2![B,=D]- | %22
 [B,D]!3!C!1!F[K:treble] (!3!F- | FGA)!ped! (.!2![A,E]/.[A,E]/) | ([A,E]!ped-up!!1!^E!2![A,F]c) | %25
 (!2![B,F]3 D) | (!4!EAG!3!^E) |[K:bass] z (.F,/.G,/) (F,/C/) z |[K:treble] (ABAA) | %29
 z (.B,/.C/) (B,/F/) [A,D] | [G,E] (.A,/.C/) (D/F/)(.[A,E]/.D/) | %31
 [G,E] (.A,/.C/) (D/F/) (.[A,E]/.D/) | (E!3!^B,CF) | (!5!A,!3!!1![=D^E]!4!!2![CF]) (!3!C | %34
 B,)(.[A,D] [G,E]) (.!5!!1![A,F]/!4!!1![^A,E]/) | %35
 !>!!3!D/F/(.A/[I:staff -1].!2!c/) (c/B/) (!1!=d/!2!e/) | (e/=d/)!2!c/!1!B/[I:staff +1] !2!CF,/F/ | %37
 (!5!B,!2!F !1!E) [B,=D]- | [B,D]CF[K:treble] (F- | FGA)!ped! (.[A,E]/.[A,E]/) | %40
 ([A,E]!ped-up!^E[A,F]c) | ([B,F]3 D) | (EAG!3!^E) |[K:bass] z (.F,/.G,/) (F,/C/) z | %44
[K:treble] (ABAA) | z (.B,/.C/) (B,/F/) [A,D] | [G,E] (.A,/.C/) (D/F/)(.[A,E]/.D/) | %47
 [G,E] (.A,/.C/) (D/F/) (.[A,E]/.D/) | (E^B,CF) | (A,[=D^E][CF]) (C | %50
 B,)(.[A,D] [G,E]) (.[A,F]/[^A,E]/) | !>!D/F/(.A/[I:staff -1].c/) (c/B/) (=d/e/) | %52
 (e/=d/)c/B/[I:staff +1] CF,/F/ | (B,F E) |] %54
V:3
 x |[K:treble] !4!E3 ^E |[K:bass] x4 |[K:treble] !4!F3 A | x4 | x4 | x4 | G,2 ^A,!4!B,/!2!D/ | %8
[K:bass] x4 | ^E,2 x2 | x4 |[K:treble] E3 ^E |[K:bass] x4 |[K:treble] F3 A | x4 | x4 | x4 | %17
 G,2 ^A,B,/D/ |[K:bass] x4 | ^E,2 x2 | x3 || x | x3[K:treble] x | x4 | x4 | x4 | E3 ^E | %27
[K:bass] x4 |[K:treble] F3 A | x4 | x4 | x4 | G,4 | A,3 !4!A,- | A, x3 | %35
 !5!B,>!5!A, !4!G, !5![G,E]- | ([G,E]A,/B,/) x2 | B,2 E x | x3[K:treble] x | x4 | x4 | x4 | E3 ^E | %43
[K:bass] x4 |[K:treble] F3 A | x4 | x4 | x4 | G,4 | A,3 A,- | A, x3 | B,>A, G, [G,E]- | %52
 ([G,E]A,/B,/) x2 | B,2 E |] %54
V:4
 x | x4 | x4 | x4 | x4 | x4 | x4 | x4 | x4 | B2- BG | x4 | x4 | x4 | x4 | x4 | x4 | x4 | x4 | x4 | %19
 B2- BG | x3 || x | x3 [A-c] | x4 | x4 | !arpeggio!!1!A2 (B/A/)(.!2!G/.!1!F/) | x4 | x4 | x4 | x4 | %30
 x4 | x4 | x4 | x4 | x4 | x4 | x2 !1!^AA | (!1!=A/c/)(.B/.A/) (!1!A/G/) x | x3 [A-c] | x4 | x4 | %41
 !arpeggio!A2 (B/A/)(.G/.F/) | x4 | x4 | x4 | x4 | x4 | x4 | x4 | x4 | x4 | x4 | x2 ^AA | %53
 (=A/c/)(.B/.A/) (A/G/) |] %54

